!!! OTL: Berkowitz559
!!! Chapter: 1
!!! Section: V
!!! Page: 141
!!! Mode: 
!!! Encoder: DJB
**kern
*staff1
*I"Piano
=1-
*clefC3
*k[]
*C:
*M2/4
4r
8f#\L
8g#\J
=2
8a\L
8e\J
8e\L
8a\J
=3
4g\
8a-\L
8b-\J
=4
8b\L
8f#\J
8c#\L
8cn\J
=5
4f\
8e-\L
8f\J
=6
8f#\L
8c#\J
8c#/L
8B/J
=7
8e\L
8d\J
8d/L
8A/J
=8
8G#/L
8c#/J
8f#\L
8e\J
=9
4a\
8g\L
8a\J
=10
!!linebreak:original
8b-\L
8ee-\J
8ee-\L
8dd\J
=11
4a\
4r
=12
8b-\L
8f\J
8c\L
8d\J
=13
8e-\L
8d-\J
8e-\
8r
=14
8f\L
8b-\J
8r
8a-\
=15
8e-\L
8a-\J
8r
8f#\
=16
8g\L
8d\J
8A/L
8B/J
=17
4B-/
4r
==
*-
